X:1
T:Title
%%score 1 2 3 4
L:1/8
Q:1/4=96
M:2/2
K:Bb
V:1 treble transpose=-2 nm="MusicXML Part"
V:2 treble transpose=-7 nm="MusicXML Part"
V:3 treble transpose=-7 nm="MusicXML Part"
V:4 bass nm="MusicXML Part"
V:1
[K:C] A4 e4- | e2 d2 c2 A2 | c2 B2 A4 || A2 d4 G2 | B2 A2 G4 || G2 c4 B2 | c2 d2 e2 f2 | %7
w: O Lord|_ of whom I|do de- pend,|Be- hold my|care- ful heart;|And when thy|will and pleas- ure|
[M:1/2] e4 |[M:2/2] A2 d4 c2 | B2 B2 A4 || A4 A2 G2 | c2 A2 B2 B2 ||[M:1/2] A4 ||[M:2/2] e4 d2 c2 | %14
w: is,|Re- lease me|of my smart.|Thou seest my|sor- rows what they|are,|My grief is|
 d2 d2 c4 || c4 f2 f2 | e2 A2 d2 c2 | B4 G4 | A2 c2 B2 B2 | A8 |] %20
w: known to thee;|And there is|none that can re-|move Or|take the same from|me.|
V:2
[K:F] z4 A4 | d4 z dcB | A3 G ^F4 || z FB>(A G4) | G3 D E4 || A4 A2 A2 | A2 d2 c2 BG |[M:1/2] c4 | %8
w: O|Lord of whom I|do de- pend,|Be- hold my _|care- ful heart;|And when thy|will and pleas- ure _|is,|
[M:2/2] B4 A2 A2- | AG E2 ^F4 || A4 A2 A2 | A2 B2 B2 A2 ||[M:1/2] A4 ||[M:2/2] (A>B c2) c3 B- | %14
w: Re- lease me|_ of my smart.|Thou seest my|sor- rows what they|are,|My _ _ grief is|
 B(AG)c A4 || B3 (c d2) d2 | d3 d e2 d2 | ^c4 A3 (G | F)G(A>=B ^c d2) c | d8 |] %20
w: _ known _ to thee;|And there _ is|none that can re-|move Or take|_ the same _ _ _ from|me.|
V:3
[K:F] (A2 G2) F2 E2 | D6 D2 | D2 ^C2 D4 || (F2 E)(D E3) D/C/ | (=B, C2) B, C4 || A,2 D4 ^C2 | %6
w: O _ Lord of|whom I|do de- pend,|Be- * hold _ my _|care- * ful heart;|And when thy|
 D A2 G- G/F/ (F2 E) |[M:1/2] F4 |[M:2/2] (D2 E2) ^C2 D2 | D2 ^C2 D4 || (F2 ED) E3 E | %11
w: will and pleas- * * ure _|is,|Re- * lease me|of my smart.|Thou _ _ seest my|
 D3 G/F/ GE ^C2 ||[M:1/2] D4 ||[M:2/2] C2 F2 E2 F2- | F2 E2 F4 || D4 (GFDE) | (FGA)=B c2 A2 | %17
w: sor- rows _ what _ they|are,|My grief is known|_ to thee;|And there _ _ is|none _ _ that can re-|
 A4 E4 | D3 G- GF(EA) | ^F8 |] %20
w: move Or|take the _ same from _|me.|
V:4
 G,4 G,2 F,2 | E,6 D,C, | B,,G,, D,2 G,,4 || E,2 C,2 (F,3 =E,/D,/) | C,(B,, C,2) F,,4 || %5
w: O Lord of|whom I _|do de- * pend,|Be- hold my _ _|care- ful _ heart;|
 B,,2 A,,G,, D,3 D, | (B,,2 E,2 D,2) C,2 |[M:1/2] B,,4 |[M:2/2] C,4 D,3 D, | D,2 D,2 G,,4 || %10
w: And when thy will and|pleas- * * ure|is,|Re- lease me|of my smart.|
 G,2 (F,=E, D,3) C, | B,,2 E,>(D, C,2) D,2 ||[M:1/2] G,,4 ||[M:2/2] B,,(C,D,=E, F,2) G,2 | %14
w: Thou _ _ seest my|sor- rows what _ they|are,|My grief _ _ _ is|
 F,3 F, B,,4 || E,3 (D, C,D,E,)F, | G,A, B,2 F,2 G,2 | D,4 D,4 | (E,>D,B,,)C, D,2 D,2 | G,,8 |] %20
w: known to thee;|And there _ _ _ is|none _ that can re-|move Or|take _ _ the same from|me.|

